dist/media/images/logo-footer.svg

<svg xmlns="http://www.w3.org/2000/svg" width="22" height="22" tabwidth="18" tabheight="18" viewBox="0 0 22 22" fill="none">
<path d="M16.9939 20.076C16.9411 20.0816 16.8825 20.0872 16.8297 20.0872C12.9491 20.0872 9.06262 20.0872 5.18199 20.0872C5.12923 20.0872 5.07061 20.0872 5.00613 20.0872C5.00613 20.7323 5.00613 21.3605 5.00613 22C4.332 22 3.67546 22 3.00719 22C3.00719 21.3661 3.00719 20.7379 3.00719 20.0928C3.66374 20.0928 4.32028 20.0928 4.98854 20.0928C4.98854 19.4533 4.98854 18.8251 4.98854 18.1912C4.95337 18.1912 4.9182 18.1856 4.88303 18.1856C3.9627 18.1856 3.0365 18.1856 2.11617 18.1856C2.081 18.1856 2.04583 18.1968 2.01066 18.2024C2.0048 18.152 1.99307 18.1071 1.99307 18.0566C1.99307 17.1928 1.99307 16.3289 1.99307 15.4651C1.99307 15.4202 1.99307 15.3753 1.99307 15.3192C1.32481 15.3192 0.668265 15.3192 0 15.3192C0 12.4416 0 9.58083 0 6.6976C0.656541 6.6976 1.31894 6.6976 1.99307 6.6976C1.99307 4.45385 1.99307 2.23253 1.99307 0C2.99547 0 3.98614 0 4.98854 0C4.98854 0.63386 4.98854 1.26211 4.98854 1.90719C5.66267 1.90719 6.31335 1.90719 6.98748 1.90719C6.98748 2.54666 6.98748 3.17491 6.98748 3.81438C9.66054 3.81438 12.316 3.81438 14.9891 3.81438C14.9891 3.18613 14.9891 2.55227 14.9891 1.9128C15.6632 1.9128 16.3197 1.9128 16.9939 1.9128C16.9939 1.26772 16.9939 0.63947 16.9939 0C18.0021 0 18.9928 0 19.9952 0C19.9952 2.22692 19.9952 4.45385 19.9952 6.69199C20.6693 6.69199 21.3317 6.69199 22 6.69199C22 9.57522 22 12.436 22 15.3136C21.3376 15.3136 20.6811 15.3136 20.0011 15.3136C20.0011 15.3697 20.0011 15.4146 20.0011 15.4538C20.0011 16.3233 20.0011 17.1871 20.0011 18.0566C20.0011 18.1071 19.9952 18.152 19.9893 18.2024C19.96 18.1968 19.9307 18.1856 19.8955 18.1856C18.9635 18.1856 18.0256 18.1856 17.0935 18.1856C17.0642 18.1856 17.0408 18.1912 16.9997 18.1968C16.9997 18.2417 16.9997 18.2866 16.9997 18.3315C16.9997 18.87 16.9997 19.4141 16.9997 19.9526C16.9997 19.9918 16.9939 20.0367 16.9939 20.076ZM21.5193 7.55584C14.4967 7.55584 7.48574 7.55584 0.47482 7.55584C0.47482 7.90923 0.47482 8.25701 0.47482 8.6104C0.679989 8.6104 0.873435 8.60479 1.06688 8.6104C1.23102 8.61601 1.28377 8.6665 1.27791 8.81795C1.27791 9.41815 1.27791 10.0184 1.27205 10.6242C1.27205 10.669 1.27205 10.7139 1.27205 10.7644C1.33067 10.7644 1.3717 10.7644 1.4186 10.7644C1.68239 10.7644 1.95204 10.7588 2.21583 10.7588C2.3741 10.7588 2.42686 10.8093 2.42686 10.9551C2.42686 11.1739 2.42686 11.3983 2.421 11.617C2.421 11.6787 2.421 11.7404 2.421 11.8078C2.46789 11.8078 2.4972 11.8134 2.52065 11.8134C2.82547 11.8134 3.12443 11.8134 3.42926 11.8134C3.63443 11.8134 3.69305 11.8695 3.68132 12.0658C3.68132 12.0938 3.67546 12.1275 3.67546 12.1555C3.67546 12.4023 3.67546 12.6492 3.67546 12.9016C5.07647 12.9016 6.46576 12.9016 7.86091 12.9016C7.86091 12.6435 7.86091 12.3855 7.86091 12.1331C7.86091 11.8078 7.86091 11.8078 8.20677 11.819C8.43539 11.8246 8.664 11.819 8.89848 11.819C8.89848 11.5273 8.89848 11.2468 8.89848 10.972C8.89848 10.8149 8.94538 10.7644 9.10951 10.7644C9.37916 10.7644 9.64881 10.77 9.91847 10.7756C10.1412 10.7812 10.1881 10.7307 10.1881 10.5176C10.1823 9.94544 10.1764 9.37328 10.1764 8.80673C10.1764 8.66089 10.2233 8.61601 10.3757 8.61601C10.6512 8.61601 10.9267 8.62162 11.1964 8.61601C11.4484 8.61601 11.466 8.63284 11.466 8.87404C11.466 9.45742 11.466 10.0464 11.4602 10.6298C11.4602 10.669 11.4602 10.7083 11.4602 10.7644C11.7357 10.7644 11.9995 10.77 12.2633 10.7644C12.615 10.7588 12.6326 10.7756 12.6267 11.1178C12.6208 11.3534 12.6267 11.589 12.6267 11.8358C13.0488 11.8358 13.465 11.8358 13.8929 11.8358C13.8929 12.2004 13.8929 12.5482 13.8929 12.9016C15.288 12.9016 16.6656 12.9016 18.0549 12.9016C18.0549 12.6043 18.0549 12.3182 18.0549 12.0265C18.0549 11.8638 18.1018 11.819 18.2718 11.819C18.4711 11.8246 18.6704 11.8246 18.8697 11.8246C18.9459 11.8246 19.0221 11.8246 19.1042 11.8246C19.1042 11.5273 19.1042 11.2468 19.1042 10.972C19.1042 10.8149 19.1511 10.7644 19.3152 10.7644C19.5966 10.7644 19.878 10.7644 20.1593 10.77C20.3528 10.77 20.388 10.742 20.388 10.5569C20.388 9.95104 20.388 9.34523 20.3821 8.73942C20.3821 8.70015 20.3821 8.66089 20.3821 8.6104C20.7631 8.6104 21.1266 8.6104 21.4959 8.6104C21.5193 8.25701 21.5193 7.90923 21.5193 7.55584ZM10.0064 15.3024C10.0064 16.2672 10.0064 17.2152 10.0064 18.1688C10.6747 18.1688 11.3371 18.1688 12.0053 18.1688C12.0053 17.2096 12.0053 16.2616 12.0053 15.3024C12.3395 15.3024 12.6677 15.3024 12.996 15.3024C12.996 14.6629 12.996 14.0291 12.996 13.3952C11.6653 13.3952 10.3405 13.3952 9.00986 13.3952C9.00986 14.0347 9.00986 14.6685 9.00986 15.3024C9.17986 15.3024 9.33813 15.3024 9.4964 15.3024C9.66054 15.3024 9.81881 15.3024 10.0064 15.3024Z" fill="white"/>
<path d="M16.9878 20.0816C17.6092 20.0816 18.2305 20.0872 18.846 20.0872C18.8929 20.0872 18.9398 20.0872 18.9926 20.0872C18.9926 20.7323 18.9926 21.3605 18.9926 22C18.3302 22 17.6678 22 16.9878 22C16.9937 21.3549 16.9937 20.7155 16.9878 20.0816C16.9878 20.0816 16.9937 20.076 16.9878 20.0816Z" fill="white"/>
<path d="M2.01066 18.1911C2.0048 18.2303 1.99893 18.2752 1.99893 18.3145C1.99893 18.8586 1.99893 19.4027 1.99893 19.9468C1.99893 19.9861 1.99893 20.031 1.99893 20.0814C1.32481 20.0814 0.668265 20.0814 0 20.0814C0 19.4476 0 18.8193 0 18.1855C0.0410338 18.1855 0.0762057 18.1799 0.111378 18.1799C0.703437 18.1799 1.2955 18.1799 1.88756 18.1799C1.92859 18.1742 1.96962 18.1911 2.01066 18.1911C2.01066 18.1911 2.01066 18.1967 2.01066 18.1911Z" fill="white"/>
<path d="M19.9893 18.1968C20.0127 18.1912 20.0362 18.1799 20.0537 18.1799C20.6986 18.1799 21.3434 18.1799 21.9941 18.1799C21.9941 18.8194 21.9941 19.4477 21.9941 20.0871C21.3317 20.0871 20.6751 20.0871 20.001 20.0871C20.001 20.0422 20.001 20.003 20.001 19.9637C20.001 19.414 20.001 18.8699 20.001 18.3202C20.001 18.2753 19.9951 18.236 19.9893 18.1968C19.9893 18.1968 19.9893 18.1912 19.9893 18.1968Z" fill="white"/>
<path d="M4.17933 9.8277C4.53105 9.8277 4.87104 9.8277 5.20518 9.8277C5.53931 9.82209 5.53931 9.82209 5.53931 10.1474C5.53931 10.4391 5.53931 10.7308 5.53931 11.0281C5.53931 11.1852 5.52172 11.2076 5.35759 11.2076C5.01759 11.2076 4.67174 11.2076 4.33174 11.2076C4.17933 11.2076 4.15002 11.1796 4.15002 11.0337C4.15002 10.7084 4.15002 10.3774 4.15002 10.0521C4.15002 9.90062 4.12071 9.87257 3.96244 9.87257C3.64589 9.87257 3.33521 9.87257 3.01866 9.87257C2.82521 9.87257 2.78418 9.83892 2.78418 9.65942C2.78418 9.33407 2.78418 9.00312 2.78418 8.67777C2.78418 8.52071 2.82521 8.48145 2.98935 8.48145C3.32348 8.48145 3.65761 8.48145 3.99175 8.48145C4.13243 8.48145 4.17347 8.52071 4.17347 8.66095C4.17347 9.00312 4.17347 9.34529 4.16761 9.68746C4.17933 9.72673 4.17933 9.76599 4.17933 9.8277Z" fill="white"/>
<path d="M14.444 8.34106C14.444 8.7842 14.444 9.22173 14.444 9.67048C14.8953 9.67048 15.3408 9.67048 15.7864 9.67048C15.7864 10.1305 15.7864 10.568 15.7864 11.0111C15.335 11.0111 14.8895 11.0111 14.4381 11.0111C14.4381 10.5736 14.4381 10.1361 14.4381 9.68731C13.9809 9.68731 13.5295 9.68731 13.0781 9.68731C13.0781 9.23295 13.0781 8.78981 13.0781 8.33545C13.5295 8.34106 13.975 8.34106 14.444 8.34106Z" fill="white"/>
</svg>

<svg xmlns="http://www.w3.org/2000/svg" width="22" height="22" tabwidth="18" tabheight="18" fill="none"><path d="M16.994 20.076a1.617 1.617 0 01-.164.011H5.006V22H3.007v-1.907H4.99V18.19c-.036 0-.07-.005-.106-.005H2.116c-.035 0-.07.01-.105.016-.006-.05-.018-.095-.018-.145v-2.738H0v-8.62h1.993V0H4.99v1.907h1.998v1.907h8.002V1.913h2.005V0h3.001v6.692H22v8.622h-1.999v2.743c0 .05-.006.095-.012.145-.029-.005-.058-.016-.094-.016h-2.802c-.029 0-.052.005-.093.01v1.758c0 .039-.006.084-.006.123zm4.525-12.52H.475V8.61c.205 0 .398-.005.592 0 .164.006.217.056.21.208 0 .6 0 1.2-.005 1.806v.14h.147c.263 0 .533-.005.797-.005.158 0 .21.05.21.196 0 .219 0 .443-.005.662v.19c.047 0 .076.006.1.006h.908c.205 0 .264.056.252.253 0 .028-.006.061-.006.09v.746h4.186v-.769c0-.325 0-.325.346-.314.228.006.457 0 .691 0v-.847c0-.157.047-.208.212-.208.27 0 .539.006.808.012.223.005.27-.045.27-.258-.006-.573-.012-1.145-.012-1.711 0-.146.047-.191.2-.191.275 0 .55.006.82 0 .252 0 .27.017.27.258 0 .583 0 1.172-.006 1.756v.134c.276 0 .54.006.803 0 .352-.005.37.012.364.354-.006.235 0 .471 0 .718h1.266v1.066h4.162v-.875c0-.163.047-.208.217-.208.2.006.398.006.598.006h.234v-.853c0-.157.047-.208.211-.208.282 0 .563 0 .844.006.194 0 .229-.028.229-.213 0-.606 0-1.212-.006-1.818V8.61h1.114c.023-.353.023-.7.023-1.054zm-11.513 7.746v2.867h2v-2.867h.99v-1.907H9.01v1.907h.996zm6.982 4.78c.621 0 1.242.005 1.858.005h.147V22h-2.005c.006-.645.006-1.285 0-1.918 0 0 .006-.006 0 0z" fill="#fff"/><path d="M2.01 18.191a.878.878 0 00-.011.123v1.767H0v-1.895c.041 0 .076-.006.111-.006h1.777c.04-.006.082.011.123.011 0 0 0 .006 0 0zm17.98.006c.023-.006.046-.017.064-.017h1.94v1.907h-1.993V18.32c0-.045-.006-.084-.012-.123 0 0 0-.006 0 0zM4.18 9.828h1.025c.334-.006.334-.006.334.32v.88c0 .157-.017.18-.181.18H4.332c-.153 0-.182-.028-.182-.174v-.982c0-.151-.03-.18-.188-.18H3.02c-.194 0-.235-.033-.235-.213v-.981c0-.157.041-.197.205-.197h1.003c.14 0 .181.04.181.18 0 .342 0 .684-.005 1.026.011.04.011.079.011.14zm10.264-1.487v1.33h1.342v1.34h-1.348V9.687h-1.36V8.335c.452.006.897.006 1.366.006z" fill="#fff"/></svg>
